client/src/media/svg/icon-blau.svg

<?xml version="1.0" encoding="UTF-8" standalone="no"?><!-- Generator: Gravit.io --><svg xmlns="http://www.w3.org/2000/svg" xmlns:xlink="http://www.w3.org/1999/xlink" style="isolation:isolate" viewBox="0 0 600 600" width="600pt" height="600pt"><defs><clipPath id="_clipPath_AH2Su6tJpZaevRYoui2xG8wGY0NlyapU"><rect width="600" height="600"/></clipPath></defs><g clip-path="url(#_clipPath_AH2Su6tJpZaevRYoui2xG8wGY0NlyapU)"><rect x="0" y="0" width="597" height="600" transform="matrix(1,0,0,1,0,0)" fill="rgb(13,17,23)"/><g><g><g/></g><g><g/></g><g><g/></g><g><g/></g><g/></g><g/><g><g/></g><g><path d=" M 53.139 167.769 L 191.579 247.697 L 297.57 308.891 L 542 167.769 L 298.125 28 L 53.139 167.769 Z " fill="rgb(255,255,255)"/><path d=" M 298.125 28 L 298.125 113.082 L 131.763 213.784 L 53.139 167.757 L 298.125 28 Z " fill="rgb(115,115,115)"/><path d=" M 279.135 255.046 L 202.717 299.152 L 126.319 255.046 L 126.319 166.804 L 202.717 122.697 L 279.135 166.804 L 279.135 255.046 Z  M 135.755 172.258 M 137.152 173.07 M 258.865 243.335 L 202.727 275.75 L 151.595 176.909 L 202.727 146.1 L 258.865 178.515 L 258.865 243.335 Z " fill-rule="evenodd" fill="rgb(115,115,115)"/><path d=" M 232.856 229.124 L 297.847 265.461 L 362.837 227.448 L 362.837 301.9 L 303.262 338.339 L 232.856 271.844 L 232.856 229.124 Z " fill="rgb(13,17,23)"/><path d=" M 230.69 227.818 L 296.963 189.556 L 363.236 227.818 L 296.963 266.081 L 230.69 227.818 Z " fill="rgb(13,17,23)"/><path d=" M 373.369 310.193 L 296.961 354.309 L 220.553 310.193 L 220.553 221.97 L 296.961 177.845 L 373.369 221.97 L 373.369 310.193 Z  M 363.932 227.425 M 362.536 228.227 M 353.099 298.492 L 296.961 330.907 L 240.822 298.492 L 240.822 233.672 L 296.961 201.257 L 353.099 233.672 L 353.099 298.492 Z " fill-rule="evenodd" fill="rgb(115,115,115)"/><path d=" M 52 320.587 L 296.43 461.709 L 311.737 491.289 L 311.737 503.263 L 297.541 570.506 L 53.111 429.384 L 52 320.587 Z " fill="rgb(255,255,255)"/><path d=" M 296.079 461.816 L 297 571.421 L 541.079 430.5 L 540.158 319.974 L 296.079 461.816 Z " fill="rgb(115,115,115)"/><path d=" M 147.727 164 L 297.921 80.818 L 449 166 L 449.413 207.421 L 296.636 295.413 L 148.727 210.322 L 147.727 164 Z " fill="rgb(13,17,23)"/><path d=" M 147.727 163.81 L 296.079 249 L 449 166 L 450 268 L 297 353 L 149 264 L 147.727 163.81 Z " fill="rgb(90,134,255)"/><path d=" M 52 167.769 L 296.43 308.891 L 542 167.757 L 542 168.029 L 541.972 276.566 L 297.541 417.688 L 53.111 276.566 L 52 167.769 Z " fill="rgb(255,255,255)"/><path d=" M 296.079 308.921 L 296.43 419 L 542 276.684 L 542 168 L 296.079 308.921 Z " fill="rgb(115,115,115)"/></g></g></svg>

<?xml version="1.0" encoding="utf-8"?>
<!-- Generator: Adobe Illustrator 26.1.0, SVG Export Plug-In . SVG Version: 6.00 Build 0)  -->
<svg version="1.1" id="Ebene_1" xmlns="http://www.w3.org/2000/svg" xmlns:xlink="http://www.w3.org/1999/xlink" x="0px" y="0px"
	 viewBox="0 0 600 600" style="enable-background:new 0 0 600 600;" xml:space="preserve">
<style type="text/css">
	.st0{clip-path:url(#SVGID_00000153704573757768280380000018063543242072529290_);}
	.st1{fill:#0D1117;}
	.st2{fill:#FFFFFF;}
	.st3{fill:#737373;}
	.st4{fill-rule:evenodd;clip-rule:evenodd;fill:#737373;}
	.st5{fill:#5A86FF;}
</style>
<g>
	<defs>
		<rect id="SVGID_1_" width="600" height="600"/>
	</defs>
	<clipPath id="SVGID_00000033353312987141519560000010030772886853911427_">
		<use xlink:href="#SVGID_1_"  style="overflow:visible;"/>
	</clipPath>
	<g style="clip-path:url(#SVGID_00000033353312987141519560000010030772886853911427_);">
		<rect class="st1" width="597" height="600"/>
		<g>
			<path class="st2" d="M53.1,167.8l138.4,79.9l106,61.2L542,167.8L298.1,28L53.1,167.8z"/>
			<path class="st3" d="M298.1,28v85.1L131.8,213.8l-78.6-46L298.1,28z"/>
			<path class="st4" d="M279.1,255l-76.4,44.1L126.3,255v-88.2l76.4-44.1l76.4,44.1V255z M258.9,243.3l-56.1,32.4l-51.1-98.8
				l51.1-30.8l56.1,32.4V243.3z"/>
			<path class="st1" d="M232.9,229.1l65,36.3l65-38v74.5l-59.6,36.4l-70.4-66.5V229.1z"/>
			<path class="st1" d="M230.7,227.8l66.3-38.3l66.3,38.3L297,266.1L230.7,227.8z"/>
			<path class="st4" d="M373.4,310.2L297,354.3l-76.4-44.1V222l76.4-44.1l76.4,44.1V310.2z M353.1,298.5L297,330.9l-56.1-32.4v-64.8
				l56.1-32.4l56.1,32.4V298.5z"/>
			<path class="st2" d="M52,320.6l244.4,141.1l15.3,29.6v12l-14.2,67.2L53.1,429.4L52,320.6z"/>
			<path class="st3" d="M296.1,461.8l0.9,109.6l244.1-140.9L540.2,320L296.1,461.8z"/>
			<path class="st1" d="M147.7,164l150.2-83.2L449,166l0.4,41.4l-152.8,88l-147.9-85.1L147.7,164z"/>
			<path class="st5" d="M147.7,163.8L296.1,249L449,166l1,102l-153,85l-148-89L147.7,163.8z"/>
			<path class="st2" d="M52,167.8l244.4,141.1L542,167.8v0.3l0,108.5L297.5,417.7L53.1,276.6L52,167.8z"/>
			<path class="st3" d="M296.1,308.9l0.4,110.1L542,276.7V168L296.1,308.9z"/>
		</g>
	</g>
</g>
</svg>
